src/assets/flags/eh.svg

<?xml version="1.0" encoding="UTF-8"?>
<svg xmlns="http://www.w3.org/2000/svg" xmlns:xlink="http://www.w3.org/1999/xlink" width="25px" height="px" viewBox="0 0 25 19" version="1.1">
<g id="surface1">
<path style=" stroke:none;fill-rule:evenodd;fill:rgb(0%,0%,0.392157%);fill-opacity:1;" d="M 0 0 L 25 0 L 25 9.5 L 0 9.5 Z M 0 0 "/>
<path style=" stroke:none;fill-rule:evenodd;fill:rgb(0%,47.843137%,23.921569%);fill-opacity:1;" d="M 0 9.5 L 25 9.5 L 25 19 L 0 19 Z M 0 9.5 "/>
<path style=" stroke:none;fill-rule:evenodd;fill:rgb(100%,100%,100%);fill-opacity:1;" d="M 0 5.539062 L 25 5.539062 L 25 13.457031 L 0 13.457031 Z M 0 5.539062 "/>
<path style=" stroke:none;fill-rule:evenodd;fill:rgb(76.862746%,6.666667%,10.588235%);fill-opacity:1;" d="M 0 0 L 12.5 9.5 L 0 19 Z M 0 0 "/>
<path style=" stroke:none;fill-rule:evenodd;fill:rgb(76.862746%,6.666667%,10.588235%);fill-opacity:1;" d="M 21.25 9.5 C 21.25 8.101562 20.128906 6.964844 18.75 6.964844 C 17.367188 6.964844 16.246094 8.101562 16.246094 9.5 C 16.246094 10.898438 17.367188 12.03125 18.75 12.03125 C 20.128906 12.03125 21.25 10.898438 21.25 9.5 Z M 21.25 9.5 "/>
<path style=" stroke:none;fill-rule:evenodd;fill:rgb(100%,100%,100%);fill-opacity:1;" d="M 22.1875 9.5 C 22.1875 8.101562 21.070312 6.964844 19.6875 6.964844 C 18.308594 6.964844 17.1875 8.101562 17.1875 9.5 C 17.1875 10.898438 18.308594 12.03125 19.6875 12.03125 C 21.070312 12.03125 22.1875 10.898438 22.1875 9.5 Z M 22.1875 9.5 "/>
<path style=" stroke:none;fill-rule:evenodd;fill:rgb(76.862746%,6.666667%,10.588235%);fill-opacity:1;" d="M 18.078125 11.03125 L 19.144531 10.261719 L 20.203125 11.042969 L 19.804688 9.777344 L 20.871094 9 L 19.558594 8.992188 L 19.15625 7.726562 L 18.746094 8.988281 L 17.433594 8.980469 L 18.488281 9.769531 L 18.082031 11.035156 Z M 18.078125 11.03125 "/>
</g>
</svg>

<svg xmlns="http://www.w3.org/2000/svg" width="25" height="px" viewBox="0 0 25 19"><path d="M0 0h25v9.5H0Zm0 0" style="stroke:none;fill-rule:evenodd;fill:#000001;fill-opacity:1"/><path d="M0 9.5h25V19H0Zm0 0" style="stroke:none;fill-rule:evenodd;fill:#007a3d;fill-opacity:1"/><path d="M0 5.54h25v7.917H0Zm0 0" style="stroke:none;fill-rule:evenodd;fill:#fff;fill-opacity:1"/><path d="m0 0 12.5 9.5L0 19ZM21.25 9.5c0-1.398-1.121-2.535-2.5-2.535-1.383 0-2.504 1.137-2.504 2.535s1.121 2.531 2.504 2.531c1.379 0 2.5-1.133 2.5-2.531m0 0" style="stroke:none;fill-rule:evenodd;fill:#c4111b;fill-opacity:1"/><path d="M22.188 9.5c0-1.398-1.118-2.535-2.5-2.535-1.38 0-2.5 1.137-2.5 2.535s1.12 2.531 2.5 2.531c1.382 0 2.5-1.133 2.5-2.531m0 0" style="stroke:none;fill-rule:evenodd;fill:#fff;fill-opacity:1"/><path d="m18.078 11.031 1.067-.77 1.058.782-.398-1.266L20.87 9l-1.312-.008-.403-1.265-.41 1.261-1.312-.008 1.054.79-.406 1.265Zm0 0" style="stroke:none;fill-rule:evenodd;fill:#c4111b;fill-opacity:1"/></svg>
